Catalina-light/actions/16/snap-guideline.svg

<svg width="16" height="16" viewBox="0 0 16 16" xmlns="http://www.w3.org/2000/svg">
<defs>
<style id="current-color-scheme" type="text/css">.ColorScheme-Text { color:#5c616c; } .ColorScheme-Highlight { color:#5294e2; }</style>
</defs>
<path class="ColorScheme-Text" d="m1 1v4l3-2-3-2zm3 2v3h-2v5h2v4h1v-4h2v-5h-2v-5h-1v2zm1 0 3 2v-4l-3 2zm5 3v5h2v4h1v-4h2v-5h-5zm-2 2v1h1v-1h-1z" fill="currentColor"/>
</svg>

<svg xmlns="http://www.w3.org/2000/svg" width="16" height="16" viewBox="0 0 16 16">
 <defs>
  <style id="current-color-scheme" type="text/css">
   .ColorScheme-Text { color:#5c616c; } .ColorScheme-Highlight { color:#5294e2; }
  </style>
 </defs>
 <path style="fill:currentColor" class="ColorScheme-Text" d="M 1 1 L 1 5 L 4 3 L 1 1 z M 4 3 L 4 6 L 2 6 L 2 11 L 4 11 L 4 15 L 5 15 L 5 11 L 7 11 L 7 6 L 5 6 L 5 3 L 5 1 L 4 1 L 4 3 z M 5 3 L 8 5 L 8 1 L 5 3 z M 10 6 L 10 11 L 12 11 L 12 15 L 13 15 L 13 11 L 15 11 L 15 6 L 10 6 z M 8 8 L 8 9 L 9 9 L 9 8 L 8 8 z"/>
</svg>
